bundles/org.openhab.ui.habpanel/web/assets/icons/freepik-housethings/spotted-beetle-insect-of-a-garden.svg

<svg xmlns="http://www.w3.org/2000/svg" width="463.926" height="463.926" style="enable-background:new 0 0 463.926 463.926" xml:space="preserve"><path d="M283.772 125.901c-16.371-5.106-33.774-7.87-51.818-7.87-18.045 0-35.458 2.764-51.82 7.87-70.628 22.042-121.893 87.956-121.893 165.853 0 88.137 65.685 160.755 150.743 172.029l20.923-299.632 1.597-22.902 1.606 22.95 20.923 299.727c85.498-10.862 151.652-83.72 151.652-172.163-.019-77.906-51.284-143.821-121.913-165.862zM117.194 382.588c-13.206 0-23.906-10.7-23.906-23.906s10.7-23.906 23.906-23.906 23.906 10.7 23.906 23.906-10.701 23.906-23.906 23.906zm9.562-133.875c-13.206 0-23.906-10.701-23.906-23.907s10.7-23.906 23.906-23.906 23.906 10.7 23.906 23.906c.001 13.206-10.7 23.907-23.906 23.907zm47.813 66.937c-13.206 0-23.906-10.7-23.906-23.906s10.7-23.906 23.906-23.906 23.906 10.7 23.906 23.906-10.701 23.906-23.906 23.906zm19.125-125.9c-7.048 0-12.757-5.708-12.757-12.756s5.709-12.757 12.757-12.757c7.047 0 12.756 5.709 12.756 12.757 0 7.047-5.709 12.756-12.756 12.756zm71.719 15.931c0-13.206 10.7-23.906 23.906-23.906s23.906 10.7 23.906 23.906-10.7 23.906-23.906 23.906c-13.196 0-23.906-10.7-23.906-23.906zm11.149 86.063c0-7.048 5.709-12.757 12.757-12.757 7.047 0 12.756 5.709 12.756 12.757 0 7.047-5.709 12.756-12.756 12.756-7.038 0-12.757-5.709-12.757-12.756zm31.882 98.818c-7.048 0-12.757-5.709-12.757-12.756 0-7.048 5.709-12.757 12.757-12.757 7.047 0 12.756 5.709 12.756 12.757s-5.709 12.756-12.756 12.756zm62.156-108.38c0 13.206-10.7 23.906-23.906 23.906s-23.906-10.7-23.906-23.906 10.7-23.906 23.906-23.906 23.906 10.709 23.906 23.906zM276.543 15.024c7.334-6.34 14.362-5.518 14.745-5.422 2.648.401 5.029-1.349 5.47-3.931.439-2.591-1.319-5.068-3.921-5.508-.449-.048-11.398-1.798-22.223 7.363-11.304 9.543-18.035 26.966-20.254 51.637-5.757-2.084-11.943-3.28-18.417-3.28-4.36 0-8.587.574-12.651 1.549-2.381-23.763-9.065-40.583-20.101-49.907C188.366-1.626 177.427.124 176.968.162a4.753 4.753 0 0 0-3.892 5.451c.412 2.582 2.85 4.341 5.432 3.988.296-.048 7.363-.976 14.755 5.422 6.665 5.775 14.325 18.494 16.696 45.537-18.962 8.434-32.197 27.406-32.197 49.496 0 2.199.172 4.351.42 6.483 17.012-5.23 35.057-8.08 53.761-8.08s36.748 2.85 53.76 8.08c.259-2.132.421-4.284.421-6.483 0-19.833-10.681-37.122-26.584-46.57 2.057-29.184 10.099-42.476 17.003-48.462z"/></svg>

<?xml version="1.0" encoding="iso-8859-1"?>
<!-- Generator: Adobe Illustrator 16.0.0, SVG Export Plug-In . SVG Version: 6.00 Build 0)  -->
<!DOCTYPE svg PUBLIC "-//W3C//DTD SVG 1.1//EN" "http://www.w3.org/Graphics/SVG/1.1/DTD/svg11.dtd">
<svg version="1.1" id="Capa_1" xmlns="http://www.w3.org/2000/svg" xmlns:xlink="http://www.w3.org/1999/xlink" x="0px" y="0px"
	 width="463.926px" height="463.926px" viewBox="0 0 463.926 463.926" style="enable-background:new 0 0 463.926 463.926;"
	 xml:space="preserve">
<g>
	<path d="M283.772,125.901c-16.371-5.106-33.774-7.87-51.818-7.87c-18.045,0-35.458,2.764-51.82,7.87
		c-70.628,22.042-121.893,87.956-121.893,165.853c0,88.137,65.685,160.755,150.743,172.029l20.923-299.632l1.597-22.902l1.606,22.95
		l20.923,299.727c85.498-10.862,151.652-83.72,151.652-172.163C405.666,213.857,354.401,147.942,283.772,125.901z M117.194,382.588
		c-13.206,0-23.906-10.7-23.906-23.906s10.7-23.906,23.906-23.906c13.206,0,23.906,10.7,23.906,23.906
		S130.399,382.588,117.194,382.588z M126.756,248.713c-13.206,0-23.906-10.701-23.906-23.907c0-13.206,10.7-23.906,23.906-23.906
		c13.206,0,23.906,10.7,23.906,23.906C150.663,238.012,139.962,248.713,126.756,248.713z M174.569,315.65
		c-13.206,0-23.906-10.7-23.906-23.906s10.7-23.906,23.906-23.906c13.206,0,23.906,10.7,23.906,23.906
		S187.774,315.65,174.569,315.65z M193.694,189.75c-7.048,0-12.757-5.708-12.757-12.756c0-7.048,5.709-12.757,12.757-12.757
		c7.047,0,12.756,5.709,12.756,12.757C206.45,184.041,200.741,189.75,193.694,189.75z M265.413,205.681
		c0-13.206,10.7-23.906,23.906-23.906s23.906,10.7,23.906,23.906c0,13.206-10.7,23.906-23.906,23.906
		C276.123,229.587,265.413,218.887,265.413,205.681z M276.562,291.744c0-7.048,5.709-12.757,12.757-12.757
		c7.047,0,12.756,5.709,12.756,12.757c0,7.047-5.709,12.756-12.756,12.756C282.281,304.5,276.562,298.791,276.562,291.744z
		 M308.444,390.562c-7.048,0-12.757-5.709-12.757-12.756c0-7.048,5.709-12.757,12.757-12.757c7.047,0,12.756,5.709,12.756,12.757
		C321.2,384.854,315.491,390.562,308.444,390.562z M370.6,282.182c0,13.206-10.7,23.906-23.906,23.906s-23.906-10.7-23.906-23.906
		s10.7-23.906,23.906-23.906S370.6,268.985,370.6,282.182z"/>
	<path d="M276.543,15.024c7.334-6.34,14.362-5.518,14.745-5.422c2.648,0.401,5.029-1.349,5.47-3.931
		c0.439-2.591-1.319-5.068-3.921-5.508c-0.449-0.048-11.398-1.798-22.223,7.363c-11.304,9.543-18.035,26.966-20.254,51.637
		c-5.757-2.084-11.943-3.28-18.417-3.28c-4.36,0-8.587,0.574-12.651,1.549c-2.381-23.763-9.065-40.583-20.101-49.907
		c-10.825-9.151-21.764-7.401-22.223-7.363c-2.582,0.44-4.303,2.869-3.892,5.451c0.412,2.582,2.85,4.341,5.432,3.988
		c0.296-0.048,7.363-0.976,14.755,5.422c6.665,5.775,14.325,18.494,16.696,45.537c-18.962,8.434-32.197,27.406-32.197,49.496
		c0,2.199,0.172,4.351,0.42,6.483c17.012-5.23,35.057-8.08,53.761-8.08s36.748,2.85,53.76,8.08c0.259-2.132,0.421-4.284,0.421-6.483
		c0-19.833-10.681-37.122-26.584-46.57C261.597,34.302,269.639,21.01,276.543,15.024z"/>
</g>
<g>
</g>
<g>
</g>
<g>
</g>
<g>
</g>
<g>
</g>
<g>
</g>
<g>
</g>
<g>
</g>
<g>
</g>
<g>
</g>
<g>
</g>
<g>
</g>
<g>
</g>
<g>
</g>
<g>
</g>
</svg>
